X:1
T:St. Anselm, 76.76 D
T:Joseph Barnby, 1869
T:St. Anselm, 76.76 D
T:Public Domain
C:Joseph Barnby, 1869
Z:Public Domain
%%score ( 1 2 ) ( 3 4 )
L:1/8
M:4/4
K:Eb
V:1 treble 
V:2 treble 
V:3 bass 
V:4 bass 
V:1
 [EB]2 | [EB]2 [EG]2 [DF]2 [DG]2 | [DF]4 E2 [C=E]2 | [CF]2 [CG]2 [CA]2 [Fc]2 | [FB]6 [DA]2 | %5
 [EG]2 [EG]2 [EA]2 [_DB]2 | [_DB]4 [Cc]2 [=EB]2 | [F=A]2 [FA]2 [FB]2 [Ec]2 | [Dd]6 [Fd]2 | %9
 [Ee]2 [Ed]2 [Ec]2 [EB]2 | [EB]4 [EA]2 [Ec]2 | [Dd]2 [Dc]2 [DB]2 [CA]2 | [=B,G]6 [B,G]2 | %13
 [CG]2 [CG]2 [CA]2 [CG]2 | [Cc]4 [CF]2 [EA]2 | [DA]2 [DG]2 [CF]2 [DG]2 | E6 |] %17
V:2
 x2 | x8 | x4 =E2 x2 | x8 | x8 | x8 | x8 | x8 | x8 | x8 | x8 | x8 | x8 | x8 | x8 | x8 | E6 |] %17
V:3
 [E,G,]2 | [E,G,]2 [E,B,]2 [B,,A,]2 [B,,B,]2 | [C,A,]4 [C,G,]2 [B,,G,]2 | %3
 [A,,F,]2 [C,=E,]2 F,2 [_E,A,]2 | (A,2 F,2 B,2) [B,,B,]2 | [E,B,]2 E,2 [E,F,]2 [E,G,]2 | %6
 [A,,G,]4 [A,,A,]2 [C,G,]2 | F,2 F,2 [F,G,]2 [F,=A,]2 | [B,,B,]6 [A,B,]2 | %9
 [G,B,]2 [G,B,]2 [G,C]2 [E,_D]2 | [A,_D]4 [A,C]2 [A,C]2 | [F,A,]2 [F,A,]2 [F,A,]2 [D,F,]2 | %12
 (F,4 D,2) (G,F,) | [C,=E,]2 [C,E,]2 [B,,E,]2 [B,,E,]2 | [A,,F,]4 [A,,F,]2 [F,,C]2 | %15
 [B,,C]2 [B,,B,]2 [B,,A,]2 [B,,A,]2 | [E,G,]6 |] %17
V:4
 x2 | x8 | x8 | x4 F,2 x2 | D,6 x2 | x2 E,2 x4 | x8 | F,2 F,2 x4 | x8 | x8 | x8 | x8 | G,,6 G,,2 | %13
 x8 | x8 | x8 | x6 |] %17

